X:223
T:The Emperor of the Moon
C:Henry Playford, 1690
L:1/4
M:2/2
S:Colin Hume's website,  colinhume.com  - chords can also be printed below the stave.
Q:1/2=110
K:Gm
P:A
|: "Gm"Gd Gd | "Gm"Gd "Cm"BA/B/ | "Gm"Gg Gg | "Gm"Gg "Dm"f=e/f/ |\
"Bb"Bf Bf | "Gm"Bg "F"AG/F/ | "Gm"GB/c/ dB/A/ | "D7"A2 "Gm"G2 :|
P:B
|: "Gm"Gg Gg | "Gm"Gg Gg | "Bb"Bb Bb | "Bb"Bb Bb |\
"Dm"df df | "Dm"df "Bb"dc/B/ | "F"cc/4d/4e/ "Gm"dg | "D7"^f2 "Gm"g2 :|
